X: 33062
T: Priest In His Boots, The
R: jig
M: 6/8
K: Gmajor
d2B c2A|B2G AFD|d2B c2A|BGF GBc|
d2B c2A|B2G AFD|GAB d2B|cBA G3:|
A3 A2G|A2G FED|G3 GFG|B2A GED|
A3 A2G|ABG FED|GAB d2B|cBA G3:|

